icon-Document.svg

<svg width="101" height="100" viewBox="0 0 101 100" fill="none" xmlns="http://www.w3.org/2000/svg">
<path fill-rule="evenodd" clip-rule="evenodd" d="M34.4071 91.6667C32.6904 91.6667 31.0613 91.5333 29.5279 91.2708L28.6196 91.1C18.7404 89.0458 12.9988 81.4792 12.9988 69.9625V30.0375C12.9988 28.6458 13.0821 27.3125 13.2488 26.0375C14.7029 14.85 22.3904 8.33334 34.4071 8.33334H66.5946C79.9113 8.33334 87.8738 16.3333 87.9988 29.7167V30.0375V69.9625C87.9988 83.5333 80.0154 91.6667 66.5946 91.6667H34.4071ZM34.4071 14.4042C24.1738 14.4042 18.9863 19.6667 18.9863 30.0375V69.9625C18.9863 80.3333 24.1738 85.5958 34.4071 85.5958H66.5571C76.7863 85.5958 81.9405 80.3333 81.9405 69.9625V30.0375C81.9405 19.6667 76.7863 14.4042 66.5571 14.4042H34.4071ZM68.4404 67.6417C68.4404 65.975 67.1113 64.625 65.4696 64.625H35.4238C33.7821 64.625 32.4488 65.975 32.4488 67.6417C32.4488 69.3083 33.7821 70.6583 35.4238 70.6583H65.4696C67.1113 70.6583 68.4404 69.3083 68.4404 67.6417ZM65.4696 46.9625C66.6154 46.8375 67.7363 47.3875 68.3488 48.375C68.9613 49.3708 68.9613 50.6292 68.3488 51.625C67.7363 52.6125 66.6154 53.1625 65.4696 53.0375H35.4238C33.8988 52.8625 32.7446 51.5583 32.7446 50C32.7446 48.4417 33.8988 47.1333 35.4238 46.9625H65.4696ZM49.5696 32.3792C49.5696 30.8208 48.4154 29.5125 46.8904 29.3417H35.4613C33.9321 29.5125 32.7779 30.8208 32.7779 32.3792C32.7779 33.9333 33.9321 35.2417 35.4613 35.4125H46.8904C48.4154 35.2417 49.5696 33.9333 49.5696 32.3792Z" fill="#505050"/>
</svg>

<?xml version="1.0" encoding="utf-8"?>
<!-- Generator: Adobe Illustrator 25.2.1, SVG Export Plug-In . SVG Version: 6.00 Build 0)  -->
<svg version="1.1" id="Layer_1" xmlns="http://www.w3.org/2000/svg" xmlns:xlink="http://www.w3.org/1999/xlink" x="0px" y="0px"
	 viewBox="0 0 101 100" style="enable-background:new 0 0 101 100;" xml:space="preserve">
<style type="text/css">
	.st0{fill-rule:evenodd;clip-rule:evenodd;fill:#505050;}
</style>
<path class="st0" d="M34.4,91.7c-1.7,0-3.3-0.1-4.9-0.4l-0.9-0.2C18.7,89,13,81.5,13,70V30c0-1.4,0.1-2.7,0.2-4
	c1.5-11.2,9.1-17.7,21.2-17.7h32.2c13.3,0,21.3,8,21.4,21.4V30V70c0,13.6-8,21.7-21.4,21.7H34.4z M34.4,14.4
	C24.2,14.4,19,19.7,19,30V70c0,10.4,5.2,15.6,15.4,15.6h32.1c10.2,0,15.4-5.3,15.4-15.6V30c0-10.4-5.2-15.6-15.4-15.6H34.4z
	 M68.4,67.6c0-1.7-1.3-3-3-3h-30c-1.6,0-3,1.3-3,3c0,1.7,1.3,3,3,3h30C67.1,70.7,68.4,69.3,68.4,67.6z M65.5,47
	c1.1-0.1,2.3,0.4,2.9,1.4c0.6,1,0.6,2.3,0,3.2c-0.6,1-1.7,1.5-2.9,1.4h-30c-1.5-0.2-2.7-1.5-2.7-3s1.2-2.9,2.7-3H65.5z M49.6,32.4
	c0-1.6-1.2-2.9-2.7-3H35.5c-1.5,0.2-2.7,1.5-2.7,3c0,1.6,1.2,2.9,2.7,3h11.4C48.4,35.2,49.6,33.9,49.6,32.4z"/>
</svg>
